X:1
T:Hide Me, Oh, My Savior!
T:Adolph Jesreal
T:Hide Me, Oh, My Savior!
T:Public Domain
T:Public Domain
C:Adolph Jesreal
Z:Public Domain
%%score ( 1 2 ) ( 3 4 )
L:1/8
M:4/4
K:Ab
V:1 treble 
V:2 treble 
V:3 bass 
V:4 bass 
V:1
 [Ec]3 [DB] [CA]2 [Ec]2 | [DE]2 (FE) [CE]4 | [Ec]2 [FA]2 [Fd]2 [Fc]2 | [FB]2 F2 [EB]4 | %4
w: 1.~When my heart is|sore op- * pressed,|I seek in vain|for rest, This|
w: 2.~In temp- ta- tion’s|try- ing * hour,|I feel the tempt-|er’s power, Near|
w: 3.~When my day of|life is * o’er,|I trem- ble on|the shore Of|
 [Ec]2 [Ed]2 [Ee]3 [Ec] | [DB]2 [Cc]2 [CA]4 | [FB]2 [=Dc]2 [EB]3 [EA] | [EG]2 [=DF]2 E4 || %8
w: dai- ly prayer shall|be, Draw me|near- er, Lord, to|Thee. “Hide me,|
w: then, O Lord, a-|bide, Strength- en|me, and be my|guide. * *|
w: dark and un- known|sea, Then, O|Lord, my com- fort|be. * *|
"^Refrain" [Ec]3 [DB] [CA][CE][CA][Ec] | [Ee]4 [Ec]2 z2 | [Bd]3 [Ac] [GB]E[EG][GB] | [Ge]6 z2 | %12
w: my Sav- ior, hide me, ’Till|the storm|of life is past; Safe in-|the|
w: ||||
w: ||||
 [Ae]3 [Af] [Ae][Ac][GB][_GA] | [FA]4 [Fd]2 dd | (E2 E2 [Ec])[EA][EB][EA] | [EA]8 |] %16
w: ha- ven guide me, Oh, re-|ceive my soul at|last.” * * * * *||
w: ||||
w: ||||
V:2
 x8 | x2 D2 x4 | x8 | x2 F2 x4 | x8 | x8 | x8 | x4 E4 || x8 | x8 | x5 E x2 | x8 | x8 | x8 | %14
w: |And||my||||Oh,|||side||||
w: |When||me|||||||||||
w: |And||the|||||||||||
 c4- x4 | x8 |] %16
w: ||
w: ||
w: ||
V:3
 [A,,A,]3 [A,,A,] [A,,A,]2 [A,,A,]2 | [B,,G,]2 [E,G,]2 [A,,A,]4 | A,2 [F,C]2 [B,,B,]2 [C,=A,]2 | %3
w: ~ ~ ~ ~|~ ~ ~|~ ~ ~ ~|
 [D,B,]2 [=D,A,]2 [E,G,]4 | A,2 [A,B,]2 [A,C]3 A, | [E,G,]2 [=E,G,]2 [F,A,]4 | %6
w: ~ ~ ~|~ ~ ~ ~|~ ~ ~|
 [=D,A,]2 [B,,A,]2 [E,G,]3 [A,,C] | [B,,B,]2 [B,,A,]2 [E,G,]4 || %8
w: ~ ~ ~ ~|~ ~ ~|
 [A,,A,]3 [A,,A,] [A,,A,][A,,A,][A,,A,][A,,A,] | C3 B, A,E,A,C | (E,3 E,) E,E,E,E, | %11
w: ~ ~ ~ Hide me, oh,|my Sav- ior, hide me, ~|’Till * the storm of life|
 D3 C B,E,G,B, | C2 C[A,D] [A,C][A,,F][B,,E][C,E] | [D,D]4 [D,A,]2 z2 | %14
w: Safe in- to ~ ~ ~|~ Oh, re- ceive * * *||
 [E,A,]2 [E,A,]2 [E,A,][E,C][E,D][A,,C] | [A,,C]8 |] %16
w: ||
V:4
 x8 | x8 | =A,2 x6 | x8 | A,2 x3 A, x2 | x8 | x8 | x8 || x8 | A,4 A,,2 x2 | E4 E2 x2 | E,6 x2 | %12
w: ||~||~ ~|||||~ ~|is past,|~|
 A,3 x5 | x8 | x8 | x8 |] %16
w: ||||

